web/public/images/azure.svg

<svg fill="none" height="42" viewBox="0 0 42 42" width="42" xmlns="http://www.w3.org/2000/svg" xmlns:xlink="http://www.w3.org/1999/xlink"><clipPath id="a"><path d="m0 0h42v42h-42z"/></clipPath><g clip-path="url(#a)"><path d="m22.316 1.87631c.1091-.29964.1127-.62754.0101-.929466-.1026-.301924-.3052-.559774-.5743-.73089-.2691-.1711153-.5886-.2452429-.9055-.2101186s-.6124.1773956-.8375.4032766l-11.19998 11.199988c-.12604.1263-.22678.2755-.2968.4396l-8.399995 19.6c-.0913257.2131-.1283264.4454-.10768107.6763.02064527.2309.09829007.453.22596707.6465.127677.1934.30139.3522.505548.4619.204159.1098.432371.1671.664171.1669h8.39999c.28768-.0001.56838-.0889.80388-.2542s.4143-.3992.5121-.6698zm5.558 4.5444c-.1132-.25022-.2975-.46162-.53-.60787-.2325-.14624-.5028-.22088-.7774-.21461s-.5413.09316-.7668.24986c-.2256.1567-.4001.37629-.5018.63142l-5.6 13.99999c-.0891.2234-.1191.4659-.0872.7043.0318.2383.1246.4644.2692.6565l7.2352 9.646-14.9576 4.984c-.3167.1041-.5859.3178-.7591.6027-.1732.2848-.2391.6222-.1857.9513.0533.3291.2223.6283.4766.8439s.5772.3334.9106.3321h28c.2343-.0001.4648-.0589.6704-.1711s.3797-.2743.5065-.4712c.1268-.197.2021-.4227.2191-.6563.0169-.2336-.025-.4678-.122-.681z" fill="#a86338"/></g></svg>

<svg width="42" height="42" viewBox="0 0 42 42" fill="none" xmlns="http://www.w3.org/2000/svg">
<g clip-path="url(#clip0_26_124)">
<path d="M22.316 1.87631C22.4251 1.57667 22.4287 1.24877 22.3261 0.946844C22.2235 0.64492 22.0209 0.38707 21.7518 0.215954C21.4827 0.0448387 21.1632 -0.0292889 20.8463 0.0058354C20.5294 0.0409597 20.2339 0.183231 20.0088 0.409112L8.80882 11.6091C8.68278 11.7354 8.58204 11.8846 8.51202 12.0487L0.112025 31.6487C0.0206993 31.8618 -0.0163014 32.0941 0.00434393 32.325C0.0249892 32.5559 0.102634 32.778 0.230311 32.9715C0.357988 33.1649 0.531701 33.3237 0.735859 33.4334C0.940018 33.5432 1.16823 33.6005 1.40003 33.6003H9.80002C10.0877 33.6002 10.3684 33.5114 10.6039 33.3461C10.8394 33.1808 11.0182 32.9469 11.116 32.6763L22.316 1.87631ZM27.874 6.42071C27.7608 6.17049 27.5765 5.95909 27.344 5.81284C27.1115 5.6666 26.8412 5.59196 26.5666 5.59823C26.292 5.6045 26.0253 5.69139 25.7998 5.84809C25.5742 6.00479 25.3997 6.22438 25.298 6.47951L19.698 20.4795C19.6089 20.7029 19.5789 20.9454 19.6108 21.1838C19.6426 21.4221 19.7354 21.6482 19.88 21.8403L27.1152 31.4863L12.1576 36.4703C11.8409 36.5744 11.5717 36.7881 11.3985 37.073C11.2253 37.3578 11.1594 37.6952 11.2128 38.0243C11.2661 38.3534 11.4351 38.6526 11.6894 38.8682C11.9437 39.0838 12.2666 39.2016 12.6 39.2003H40.6C40.8343 39.2002 41.0648 39.1414 41.2704 39.0292C41.476 38.917 41.6501 38.7549 41.7769 38.558C41.9037 38.361 41.979 38.1353 41.996 37.9017C42.0129 37.6681 41.971 37.4339 41.874 37.2207L27.874 6.42071Z" fill="#A86338"/>
</g>
<defs>
<clipPath id="clip0_26_124">
<rect width="42" height="42" fill="white"/>
</clipPath>
</defs>
</svg>
